X:2161
L:1/4
M:4/4
K:G
 G/A/ |: B d d3/2 e/ | d B G3/2 A/ | B B A G | A3 G/A/ | B d d3/2 e/ | d B G3/2 A/ | B B A A |1 
 G3 G/A/ :|

